X:1
T:Alleluia (Lowe), 87.87
T:Albert Lowe, 1868
T:Alleluia (Lowe), 87.87
T:Public Domain
C:Albert Lowe, 1868
Z:Public Domain
%%score ( 1 2 ) { ( 3 6 ) | ( 4 5 ) }
L:1/8
M:4/4
K:C
V:1 treble 
V:2 treble 
V:3 treble 
V:6 treble 
V:4 bass 
V:5 bass 
V:1
 C2"^Voices in unison" C2 D3 D | D2 F2 F2 E2 | E2 E2 c3 B | A2 B2 E4 | e2 d2 c3 G | B2 A2 G2 ^F2 | %6
 G2 A2 D3 E x | F2 G2 E4 ||"^Voices and Organ" EFG[EB] [FA]2 [FA]2 | ^FGA[Fc] [GB]2 [GB]2 | %10
 ^GAB[Gd] [Ec]2 [_EA]2 | [DG]4 [EG]8 |] %12
V:2
 x8 | x8 | x8 | x8 | x8 | x8 | x9 | x8 || c3 x5 | d3 x5 | _e3 x5 | x12 |] %12
V:3
"^Organ" C2 C2 D3 D | D2 F2 F2 E2 | [CE]2 [DE]2 [CE-c]3 [DEB] | [CEA]2 [B,FB]2 [B,E]4 | %4
 [EGe]2 [FGd]2 [EGc]3 G | [GB]2 [FA]2 [EG]2 [_E^F]2 | [C-EG]2 [C-_EA]2 C2 z =E x | %7
 [B,F]2 [B,DG]2 [CE]4 || x8 | x8 | x8 | x12 |] %12
V:4
 [C,E,G,]2 [C,E,G,]2 [C,F,A,]3 [C,F,A,] | [C,G,-]2 [G,,G,B,]2 B,2 C2 | %2
 [C,E,G,]2 [B,,E,^G,]2 [A,,E,-A,]3 [B,,E,G,] | [C,E,A,-]2 [D,A,]2 [E,^G,]4 | %4
 [C,G,-C]2 [D,G,B,]2 [E,C]3 [E,,E,C] | [F,,F,C]4 [G,,G,]2 [_A,,_A,]2 | G,2 ^F,2 =F,3 E, x | %7
 D,2 G,2- [C,G,]4 || x8 | x8 | x8 | x12 |] %12
V:5
 x8 | x4 [C,G,]4 | x8 | x8 | x8 | x2 C4 x2 | G,,4 G,,4 x | G,,4 x4 || x8 | x8 | x8 | x12 |] %12
V:6
 x8 | x8 | x8 | x8 | x8 | x8 | x4 D3 B,2- | x8 || x8 | x8 | x8 | x12 |] %12

